X: 031
T: Mrs Fullarton of Fullarton's Strathspey
C: attr. John French (1753-1803)
R: strathspey
B: "John French Collection", John French ed. p.3 #1
S: http://www.heallan.com/french.asp
Z: 2012 John Chambers <jc:trillian.mit.edu>
N: There's a half-beat missing in the first part's repeat.
M: C
L: 1/8
K: A
|: [EA,]>A-A>E F>dB>G | [EA,]>A-Ac/d/ e>Ac>A | d>Bc>A G>BBd | c<eE>G A2A :|
f/g/ | a>ec>A GB-Bf/g/ | a>ec>A E>Ac>A | d>Bc>A G>B-Bd | c<eE>G A2A ||
f/g/ | a>ec>A GB-Bf/g/ | a>ef>c e>BcE | FBd>c BB,DF | [EA,]>ec<e B<cA<c |]

%%sep 2 1 500
%%sep 1 1 500

